assets/images/fb.svg

<svg width="48" height="48" viewBox="0 0 48 48" fill="none" xmlns="http://www.w3.org/2000/svg">
<g id="Group 358">
<circle id="Ellipse 17" cx="24" cy="24" r="24" fill="white"/>
<path id="Vector" d="M24 0C10.745 0 0 10.745 0 24C0 37.255 10.745 48 24 48C37.255 48 48 37.255 48 24C48 10.745 37.255 0 24 0ZM29.685 16.585H26.0775C25.65 16.585 25.175 17.1475 25.175 17.895V20.5H29.6875L29.005 24.215H25.175V35.3675H20.9175V24.215H17.055V20.5H20.9175V18.315C20.9175 15.18 23.0925 12.6325 26.0775 12.6325H29.685V16.585Z" fill="#FFB445"/>
</g>
</svg>

<svg width="48" height="48" fill="none" xmlns="http://www.w3.org/2000/svg"><circle cx="24" cy="24" r="24" fill="#fff"/><path d="M24 0C10.745 0 0 10.745 0 24s10.745 24 24 24 24-10.745 24-24S37.255 0 24 0Zm5.685 16.585h-3.607c-.428 0-.903.563-.903 1.31V20.5h4.512l-.682 3.715h-3.83v11.152h-4.258V24.215h-3.862V20.5h3.863v-2.185c0-3.135 2.175-5.683 5.16-5.683h3.607v3.953Z" fill="#FFB445"/></svg>
